!!!COM: Frescobaldi, Girolamo
!!!CDT: 1583///-1643
!!!ONM: No. 4
!!!OTL: No. 4: Canzon Quarta Canto solo
!!!OPR: Canzoni da sonare a una, due, tre et quattro, libro primo
!!!PPP: Venezia
!!!PDT: 1634
!!!URL: http://icking-music-archive.org/ByComposer/Frescobaldi.html
!!!ONB: Andrea Friggi, ed.
**kern	**kern
!Basso ad Organo	!Canto Solo
*staff2	*staff1
*Icello	*Ivioln
*clefC1	*clefG2
*k[]	*k[]
*met(C)	*met(C)
*M4/4	*M4/4
*MM120	*MM120
=1-	=1-
2dd\	2dd\
4g\	4g/
4b\	4b\
=2	=2
4cc\	4cc\
4g\	4dd\
4c/	4.ee\
4e/	.
.	8ee\
=3	=3
4f/	4dd\
*clefF4	*
4G\	2gg\
4D\	.
4d\	4ff\
=4	=4
4c\	4ee\
4B-\	4dd\
2A\	4dd\
.	4cc#\
=5	=5
2D\	1dd
4GG/	.
4BB/	.
=6	=6
4C/	2r
4D\	.
2E\	2gg\
=7	=7
4F\	4cc\
4E\	4ee\
4D\	4ff\
8C/L	4gg\
8BB/J	.
=8	=8
4AA/	4aa\
4BB/	8gg\L
.	8ff\J
4C/	4ee\
8BB/L	4ff#\
8AA/J	.
=9	=9
4GG/	4.gg\
4BB/	.
.	8ff\
4C/	4ee\
4D\	8dd\L
.	8cc\J
=10	=10
4E\	8b/L
.	8g/J
8D/L	2cc\
8C/J	.
2G\	.
.	4b\
=11	=11
4C/	2cc\
4E\	.
4F\	2r
4G\	.
=12	=12
4A\	4r
8G\L	4dd\
8F\J	.
4E\	4g/
4D\	4b\
=13	=13
4C/	4cc\
4BB/	4dd\
4C/	4.ee\
4c\	.
.	16dd\LL
.	16cc\JJ
=14	=14
4G\	4b\
4A\	4cc#\
4B-\	4.dd\
4G\	.
.	8ee\
=15	=15
4A\	4.cc\
4F#\	.
.	8dd\
4G\	8b\L
.	8cc\
4Fn\	8a\
.	8b\J
=16	=16
8E/L	4cc\
8F/	.
8G/	4b-\
8GG/J	.
2D\	4.a/
.	8a/
=17	=17
1GG	1g
=18	=18
*M3/2	*M3/2
2.G\	1.r
4G\	.
2A\	.
=19	=19
4B\	1.r
4G\	.
2c\	.
2B\	.
=20	=20
4c\	2.g/
4C/	.
4E\	.
4E\	4g/
2F#\	2a/
=21	=21
2G\	4b\
.	4g/
2A\	4cc\
.	4cc\
2G\	2b\
=22	=22
2.C/	1cc
4C/	.
2D\	2r
=23	=23
4E\	1.r
4C/	.
4G\	.
4G\	.
2F\	.
=24	=24
2E\	2.cc\
2F\	.
.	4cc\
2D\	2dd\
=25	=25
1C	4ee\
.	4cc\
.	4gg\
.	4gg\
2D\	2ff#\
=26	=26
2.GG/	1gg
4GG/	.
2AA/	2r
=27	=27
4BB/	2.dd\
4GG/	.
4D\	.
4D\	4dd\
2E\	4cc\
.	4b\
=28	=28
4F\	2.a/
4D\	.
4F\	.
4F\	4a/
4E\	2b\
4D\	.
=29	=29
2.C/	4cc\
.	4g/
.	4cc\
4AA/	4cc\
4BB/	2b\
4C/	.
=30	=30
2.D\	1a
4C/	.
2BB-/	2g/
=31	=31
2.AA/	2.a/
4FF/	4a/
4GG/	4b\
4AA/	4cc\
=32	=32
2BB-/	1dd
1AA	.
.	2cc#\
=33	=33
*met(C)	*met(C)
*M4/4	*M4/4
1D	1dd
=34	=34
1C#	2r
.	[2aa\
=35	=35
1D	16aa\LL]
.	16gg\
.	16ff\
.	16ee\JJ
.	4ff\
.	16b\LK
.	8.cc\J
.	16dd\LK
.	8.cc\J
=36	=36
2E\	4b\
.	4.ee\
2F\	.
.	16dd\LL
.	16cc\JJ
.	8dd\L
.	8a\J
=37	=37
1E	8cc/L
.	8b/
.	8cc/
.	8f#/J
.	8g#/L
.	16a/L
.	16b/JJ
.	8a/L
.	8g#/J
=38	=38
2F\	16a\LL
.	16b\
.	16cc\
.	16dd\JJ
.	16ee\LL
.	16ff\
.	16gg\
.	16aa\JJ
2G\	8dd\L
.	16ee\L
.	16ff\JJ
.	8.ee\L
.	16dd\Jk
=39	=39
2C/	2ee\
*clefC4	*
4c\	2r
8c\L	.
8c\J	.
=40	=40
4.B\	1r
8G/	.
8A\L	.
8B\	.
8c\	.
8d\J	.
=41	=41
4B\	4gg\
4G/	8gg\L
.	8gg\J
4c\	4.ee\
4A\	.
.	8cc\
=42	=42
4.B-\	8dd\L
.	8ee\
.	8ff\
8G/	8gg\J
4c\	4.ee\
4C/	.
.	16dd\LL
.	16ee\JJ
=43	=43
*clefF4	*
4F\	2ff\
8F\L	.
8F\J	.
4.E\	2r
8C/	.
=44	=44
8D\L	2r
8E\	.
8F\	.
8G\J	.
4E\	4cc\
4C/	8cc\L
.	8cc\J
=45	=45
4D\	4.b\
4E\	.
.	8g/
2F\	8a\L
.	8b\
.	8cc\
.	8dd\J
=46	=46
4G\	4.b\
4GG/	.
.	16a/LL
.	16b/JJ
8AA/L	8cc\L
8BB/	8dd\
8C/	8ee\
8D/J	8ff\J
=47	=47
4.BB/	8gg\L
.	8dd\J
.	2gg\
8C/	.
4AA/	.
4D\	4ff#\
=48	=48
4G\	2gg\
8G\L	.
8G\J	.
4c\	2r
8c\L	.
8c\J	.
=49	=49
4.B\	4gg\
.	8gg\L
8G\	8gg\J
8A\L	4.ee\
8B\	.
8c\	.
8A\J	8cc\
=50	=50
4B-\	8dd\L
.	8ee\
4D\	8ff\
.	8gg\J
4.C/	8ee\L
.	8dd\
.	8ee\
8AA/	8ff\J
=51	=51
4.BB-/	8dd\L
.	8cc\
.	8dd\
8GG/	8ee\J
4AA/	4.cc\
4FF/	.
.	8a/
=52	=52
4GG/	8b\L
.	8cc\J
4BB-/	2dd\
2AA/	.
.	4cc#\
=53	=53
1D	2dd\
.	2r
=54	=54
*M6/4	*M6/4
2.G\	4dd\
.	4b\
.	4dd\
2.A\	8cc\L
.	8b\
.	8cc\
.	8dd\J
.	4cc\
=55	=55
2G\	4b\
.	4g/
4G\	4dd\
2E\	8gg\L
.	8ff\
.	8gg\
.	8aa\J
4BB/	4gg\
=56	=56
2.D\	4ff\
.	4dd\
.	4ff\
2.C/	8ee\L
.	8dd\
.	8ee\
.	8ff\J
.	4ee\
=57	=57
2.BB/	4dd\
.	4g/
.	4b\
2.AA/	8cc\L
.	8b\
.	8cc\
.	8dd\J
.	4cc\
=58	=58
*met(C)	*met(C)
*M4/4	*M4/4
2E\	4b\
.	2ee\
2F\	.
.	16dd\LL
.	16cc\
.	16b\
.	16a\JJ
=59	=59
2E\	2b\
2AA/	4r
.	[4aa\
=60	=60
2BB-/	4aa\]
.	16gg\LL
.	16ff\
.	16ee\
.	16dd\JJ
2AA/	2ee\
=61	=61
*clefC4	*
4A\	2r
8B\L	.
8d\J	.
2c#\	8r
.	8aa\L
.	8gg\
.	8aa\J
=62	=62
4d\	8ff\L
.	16dd\L
.	16ee\JJ
4A\	8ff\L
.	16gg\L
.	16ff\JJ
2c\	8ee\L
.	16gg\L
.	16ff\JJ
.	16ee\LL
.	16dd\
.	16cc\
.	16b\JJ
=63	=63
4D/	4a/
8.E/L	4g/
16G/Jk	.
4F#/	2r
4G/	.
=64	=64
4A\	4a/
4G#/	8.b\L
.	16dd\Jk
4A\	4cc#\
4D/	4dd\
=65	=65
4d\	2r
8c\L	.
8d\J	.
2B\	8r
.	8gg\L
.	8ff\
.	8gg\J
=66	=66
2c\	8ee\L
.	16cc\L
.	16dd\JJ
.	8ee\L
.	16ff\L
.	16ee\JJ
2d\	8dd\L
.	16ff\L
.	16ee\JJ
.	16dd\LL
.	16cc\
.	16b\
.	16a\JJ
=67	=67
2e\	8g#\L
.	8ee\
.	8dd\
.	8ee\J
4A\	2cc#\
8G/L	.
8A/J	.
=68	=68
*clefF4	*
4D\	2r
8.E\L	.
16G\Jk	.
4F#\	4a/
4G\	8.b\L
.	16dd\Jk
=69	=69
4A\	4cc#\
4D\	8dd\L
.	8ccn\J
2GG/	8b\L
.	8ee\
.	8dd\
.	8ee\J
=70	=70
4AA/	2cc#\
4A\	.
2F#\	8r
.	8dd\L
.	8ccn\
.	8dd\J
=71	=71
4G\	4b\
8.A\L	4cc\
16c\Jk	.
4B\	4dd\
4c\	8.ee\L
.	16gg\Jk
=72	=72
4A\	4ff#\
4G\	4gg\
2C/	8ee\L
.	8aa\
.	8gg\
.	8aa\J
=73	=73
2D\	8ff\L
.	16dd\L
.	16ee\JJ
.	8ff\L
.	16gg\L
.	16ff\JJ
2E\	8ee\L
.	16gg\L
.	16ff\JJ
.	16ee\LL
.	16dd\
.	16cc\
.	16b\JJ
=74	=74
2F#\	8a\L
.	8dd\
.	8cc\
.	8dd\J
2G\	8b/L
.	16g/L
.	16a/JJ
.	8b\L
.	16cc\L
.	16b\JJ
=75	=75
1D	4a/
.	8b\L
.	8cc\J
.	2dd\
=76	=76
0GG	0dd
==	==
*-	*-
!!!ENC: Craig Stuart Sapp
!!!END: 2004/12/14/
